storage/app/icons/phosphoricons/thin/folder-open-thin.svg

<svg xmlns="http://www.w3.org/2000/svg" fill="currentColor" viewBox="0 0 256 256"><path d="M241.72 113a11.88 11.88 0 0 0-9.73-5H212V88a12 12 0 0 0-12-12h-70.67l-28.8-21.6a12.05 12.05 0 0 0-7.2-2.4H40a12 12 0 0 0-12 12v144a4 4 0 0 0 4 4h179.09a4 4 0 0 0 3.79-2.74l28.49-85.47a11.86 11.86 0 0 0-1.65-10.79M40 60h53.33a4 4 0 0 1 2.4.8l29.87 22.4a4 4 0 0 0 2.4.8h72a4 4 0 0 1 4 4v20H69.76a12 12 0 0 0-11.38 8.21L36 183.35V64a4 4 0 0 1 4-4m195.78 61.26L208.2 204H37.55L66 118.74a4 4 0 0 1 3.76-2.74H232a4 4 0 0 1 3.79 5.26Z"/></svg>

<svg xmlns="http://www.w3.org/2000/svg" viewBox="0 0 256 256" fill="currentColor"><path d="M241.72,113a11.88,11.88,0,0,0-9.73-5H212V88a12,12,0,0,0-12-12H129.33l-28.8-21.6a12.05,12.05,0,0,0-7.2-2.4H40A12,12,0,0,0,28,64V208a4,4,0,0,0,4,4H211.09a4,4,0,0,0,3.79-2.74l28.49-85.47A11.86,11.86,0,0,0,241.72,113ZM40,60H93.33a4,4,0,0,1,2.4.8L125.6,83.2a4,4,0,0,0,2.4.8h72a4,4,0,0,1,4,4v20H69.76a12,12,0,0,0-11.38,8.21L36,183.35V64A4,4,0,0,1,40,60Zm195.78,61.26L208.2,204H37.55L66,118.74A4,4,0,0,1,69.76,116H232a4,4,0,0,1,3.79,5.26Z"/></svg>
